X:1     %Music
T:In Nightly Stillness
B:Singing Together, Autumn 1966, BBC Publications
F:http://www.folkinfo.org/songs
M:2/4     %Meter
L:1/16     %
K:Bb
B4 c2A2 |B4 F4 |d2d2 e2c2 |d8 |
w:In night-ly still-ness comes a voice that rings: 
B4 c2A2 |B4 F4 |d2d2 e2c2 |d8 |
w:'Rise now, ye shep-herds, greet the King of Kings! 
B2d2 B2d2 |e3c A2F2 |B2d2 B2d2 |e3c A2F2 |
w:leave the flocks be-hind a-feed-ing, On to Beth-lem go a-speed-ing, 
B2B2 c2c2 |B8 |]
w:Christ is born to day.' 